X: 517
T: The steam packet
C: anon.
O: Ireland
B: Francis O'Neill: "The Dance Music of Ireland" (1907) no. 517
R: Reel
Z: Transcribed by Frank Nordberg - http://www.musicaviva.com
F: http://www.musicaviva.com/abc/tunes/ireland/oneill-1001/oneill-1001-051
7.abc
M: C|
L: 1/8
K: Ador
A>G ({A}(3G)FG AGFD|D>(G {A}(3G)FG AdcA|BGgB AFDE|FEFG AdcA:|d>g (3ggg a>
g (3ggg|
dggg fdcA|d>g (3ggg a>g (3ggg|dcde fdcA|d>g (3ggg a>g (3ggg|dgge f2fg|afg
e fdec|dcde fdcA|]
W:
W:
W: From Musica Viva - http://www.musicaviva.com
W: the Internet center for free sheet music downloads.


